X: 1
T:The Wind Up -- Reel
M:2/4
L:1/16
R:reel
B:Ryan's Mammoth Collection
Z:Contributed by Ray Davies,  ray:davies99.freeserve.co.uk
K:Dm
{^g}va4 {g}a3=g|fedf e^cA2|{^g}a4 {g}a3=g|fed^c defg|
{^g}a4 {g}a3=g|fedf e^cAc|defg afge|fde^c d4::
.F4-.F2(AB)|cfag fdcA|FGFE FGAB|c=Bdc G4 |
F2{G}FE FGAB|cfag fdcA|bcac gcfc|gfag f2z2:|
